X:538
T: Yitang qingshui yitang lian
N: C0134
O: China,Hunan, Hengshan
S: I, 556]
N: Ist eine Variante. Die 5 hat bisweilen ein #, manchmal wird sie
N: aber auch weniger erhoeht. Dasselbe gilt auch fuer die 2. - Sollte
N: mit Maennerstimme gesungen werden: viel Falsett. - Inhalt: aus
N: der Lokaloper entnommen; beschreibt die laendliche Gegend und
N: Lotosblumen, die von Mann und Frau gepflueckt werden.
N: Saengerin: Huang Bai
N: Die beiden Triolen in der letzten Phrase sind in der Vorlage als
N: Sechstole notiert. Wenig Verzierungen.
N: +++ NACH ABHOEREN SAEMTLICHE (#-) VORZEICHEN ENTFERNT, DA SIE DEM
N:  (temperierten) HOEREINDRUCK NICHT ENTSPRECHEN. Vgl. Transkription!
N: Gesungen: VARIANTE. Viele Verzierungen?
N: +++ (Die originalen Noten in den letzten 2 Takten sind falsch, Sie wurden
N: korregiert.)
R: Shange]
M: 2/2
L: 1/16
K: A
f2a2f12 | f3ae8-e2c2 |
f16 | e12c4 | b16 |
a2c2f2a2c8- | c6afe4c4 | c2e2f12 |
f2a2f12 | f3ae8e2c2 |
c2e2f12 | e12c4 |
c4c4afe2e2c2 | c2e2f12 |
a4a4e4c4 | f2a2c12 | b16 |
c4c4afefa4 | c4ababababa4 |
a4a4c4f2a2 | c16 | b16 |
c4c4(3a2f2e2(3f2e2c2 | e4f12

@@@ Tune index: 6539
